X: 25297
T: Man Of The House, The
R: reel
M: 4/4
K: Eminor
E2 BE GABG|E2 BE A~F3|E2 BE GABc|dBcA BEED|
E2 BE GABG|E2 BE A~F3|E2 BE GABe|d2cA BE E2||
efge fgaf|gfed B2ed|efge fgaf|gfed Be e2|
efge fgaf|gfed efga|bgaf gfed|edBA GAFG||

